color/svg/26F2.svg

<svg id="emoji" viewBox="0 0 72 72" xmlns="http://www.w3.org/2000/svg">
  <g id="color">
    <path fill="#fff" d="m9.6925,54.5561l-.4164-22.4101s3.5702-8.5423,8.1766.0011l.2968,4.5149,7.3075-.0937.1874-20.611s2.7169-5.3401,6.6517,0l-.2811,11.5234h8.2444l.1874-11.7108s2.5295-5.2464,6.6517.0937l.0937,20.33,8.4318-.0937-.0263-4.5526s2.5321-5.4903,6.3928.0251l.0042,23.7333s-22.3911,10.0245-51.9023-.7495Z"/>
    <polygon fill="#d0cfce" points="35.955 41.28 35.955 32.735 30.935 32.114 32.728 37.087 33.445 41.435 35.955 41.28"/>
    <polygon fill="#9b9b9a" points="35.955 41.7 35.955 33.156 40.975 32.535 39.182 37.507 38.465 41.856 35.955 41.7"/>
    <path fill="#d0cfce" d="m36,42.2385l-.045,17.7777h-4.975s-.3773-7.7261-1.69-10.9454-9.6-9.2972-9.6-9.2972c0,0,11.731,2.47,14.0205,2.4675"/>
    <path fill="#d0cfce" d="m36,60.622v5.5511H5.7425v-11.9455s19.2585,6.74,23.8912,6.2538,6.3663.1406,6.3663.1406Z"/>
    <path fill="#9b9b9a" d="m36,60.622v5.5511h30.2575v-11.9455s-19.2585,6.74-23.8912,6.2538-6.3663.1406-6.3663.1406Z"/>
    <line x1="53.5775" x2="53.5775" y1="35.8191" y2="31.6425" fill="none" stroke="#61b2e4" stroke-linecap="round" stroke-linejoin="round" stroke-width="2"/>
    <path fill="none" stroke="#61b2e4" stroke-linecap="round" stroke-linejoin="round" stroke-width="2" d="m53.0463,35.8191v-5.7162c.9717-2.9724,4.1691-4.5942,7.1415-3.6225,1.6853.5509,3.0152,1.8595,3.5933,3.5356v20.917h-.7174v-19.29"/>
    <path fill="#9b9b9a" d="m35.955,42.2385v17.7777h5.02s.3773-7.7261,1.69-10.9454,9.6-9.2972,9.6-9.2972c0,0-11.731,2.47-14.02,2.4675"/>
    <path fill="none" stroke="#61b2e4" stroke-linecap="round" stroke-linejoin="round" stroke-width="2" d="m48.0137,16.1195c-.1492-2.4745-2.2676-4.3647-4.7431-4.2321-2.4755-.1326-4.5939,1.7576-4.7431,4.2321v10.6071h-.6243v-12.0379c.9716-2.9724,4.1688-4.5944,7.1412-3.6228,1.6855.5509,3.0155,1.8596,3.5936,3.5359v20.9169h-.7174v-19.29l.0931.0231v19.29"/>
    <path fill="none" stroke="#92d3f5" stroke-linecap="round" stroke-linejoin="round" stroke-width="2" d="m18.638,35.8191v-5.7162c-.6738-2.3431-2.8359-3.9428-5.2736-3.9018-2.4806-.1339-4.7333,1.4397-5.4612,3.8149v20.917h.7174v-19.29"/>
    <path fill="none" stroke="#92d3f5" stroke-linecap="round" stroke-linejoin="round" stroke-width="2" d="m33.1568,16.2514v10.4752h.6243v-12.0379c-.6738-2.3432-2.8358-3.9428-5.2736-3.9019-2.4806-.1338-4.7333,1.4398-5.4612,3.815v20.9169h.7174"/>
  </g>
  <g id="line">
    <path fill="none" stroke="#000" stroke-linecap="round" stroke-linejoin="round" stroke-width="2" d="m67.015,66.7126H4.985v-13.3926c9.7485,4.4002,20.3195,6.6825,31.015,6.6962,10.6959-.0101,21.2677-2.2925,31.015-6.6962v13.3926Z"/>
    <path fill="none" stroke="#000" stroke-linecap="round" stroke-linejoin="round" stroke-width="2" d="m16,38.867c6.5467,2.3359,13.4599,3.4763,20.41,3.3666,6.6975-.1091,13.3255-1.3776,19.59-3.7492"/>
    <path fill="none" stroke="#000" stroke-linecap="round" stroke-linejoin="round" stroke-width="2" d="m28.57,31.4745c4.7342,1.6908,9.9156,1.6411,14.6165-.14"/>
    <path fill="none" stroke="#000" stroke-linecap="round" stroke-linejoin="round" stroke-width="2" d="m16,38.867c8.7349,3.0567,14.7001,11.159,15.0248,20.4076"/>
    <path fill="none" stroke="#000" stroke-linecap="round" stroke-linejoin="round" stroke-width="2" d="m56,38.4844c-8.7349,3.0567-14.7001,11.159-15.0248,20.4076"/>
    <path fill="none" stroke="#000" stroke-linecap="round" stroke-linejoin="round" stroke-width="2" d="m28.57,31.4983c1.0612.9744,1.9541,2.1173,2.6427,3.3827,1.0815,2.0126,1.6275,4.2695,1.5856,6.5539"/>
    <path fill="none" stroke="#000" stroke-linecap="round" stroke-linejoin="round" stroke-width="2" d="m43.09,31.4983c-1.0611.9744-1.954,2.1173-2.6427,3.3827-1.0814,2.0127-1.6274,4.2695-1.5856,6.5539"/>
    <path fill="none" stroke="#000" stroke-linecap="round" stroke-linejoin="round" stroke-width="2" d="m54.2316,35.8191v-3.672c.0111-2.2579,1.8506-4.0793,4.1085-4.0682,2.2422.011,4.0572,1.826,4.0682,4.0682v18.7629"/>
    <path fill="none" stroke="#000" stroke-linecap="round" stroke-linejoin="round" stroke-width="2" d="m39.1816,26.7266v-9.9706c.0111-2.2579,1.8506-4.0793,4.1085-4.0682,2.2422.011,4.0572,1.826,4.0682,4.0682v18.7627"/>
    <path fill="none" stroke="#000" stroke-linecap="round" stroke-linejoin="round" stroke-width="2" d="m17.4527,35.8191v-3.672c.0003-2.2579-1.8298-4.0886-4.0877-4.0889-2.2579-.0003-4.0885,1.8298-4.0889,4.0877v18.764"/>
    <path fill="none" stroke="#000" stroke-linecap="round" stroke-linejoin="round" stroke-width="2" d="m32.5027,26.7266v-9.9706c0-2.2579-1.8304-4.0883-4.0883-4.0883s-4.0883,1.8304-4.0883,4.0883v18.7627"/>
  </g>
</svg>

<svg id="emoji" viewBox="0 0 72 72" xmlns="http://www.w3.org/2000/svg">
  <g id="color">
    <polygon fill="#d0cfce" points="35.955 41.28 35.955 32.735 30.935 32.114 32.728 37.087 33.445 41.435 35.955 41.28"/>
    <polygon fill="#9b9b9a" points="35.955 41.7 35.955 33.156 40.975 32.535 39.182 37.507 38.465 41.856 35.955 41.7"/>
    <path fill="#d0cfce" d="M36,42.2385l-.045,17.7777H30.98s-.3773-7.7261-1.69-10.9454-9.6-9.2972-9.6-9.2972,11.731,2.47,14.0205,2.4675"/>
    <path fill="#d0cfce" d="M36,60.622v5.5511H5.7425V54.2276s19.2585,6.74,23.8912,6.2538S36,60.622,36,60.622Z"/>
    <path fill="#9b9b9a" d="M36,60.622v5.5511H66.2575V54.2276s-19.2585,6.74-23.8912,6.2538S36,60.622,36,60.622Z"/>
    <line x1="53.5775" x2="53.5775" y1="35.8191" y2="31.6425" fill="none" stroke="#61b2e4" stroke-linecap="round" stroke-linejoin="round" stroke-width="2"/>
    <path fill="none" stroke="#61b2e4" stroke-linecap="round" stroke-linejoin="round" stroke-width="2" d="M53.0463,35.8191V30.1029a5.6623,5.6623,0,0,1,10.7348-.0869V50.933h-.7174v-19.29"/>
    <path fill="#9b9b9a" d="M35.955,42.2385V60.0162h5.02s.3773-7.7261,1.69-10.9454,9.6-9.2972,9.6-9.2972-11.731,2.47-14.02,2.4675"/>
    <path fill="none" stroke="#61b2e4" stroke-linecap="round" stroke-linejoin="round" stroke-width="2" d="M48.0137,16.1195a4.51,4.51,0,0,0-4.7431-4.2321,4.51,4.51,0,0,0-4.7431,4.2321V26.7266h-.6243V14.6887a5.6622,5.6622,0,0,1,10.7348-.0869V35.5187h-.7174v-19.29l.0931.0231v19.29"/>
    <path fill="none" stroke="#92d3f5" stroke-linecap="round" stroke-linejoin="round" stroke-width="2" d="M18.638,35.8191V30.1029a5.393,5.393,0,0,0-5.2736-3.9018A5.4071,5.4071,0,0,0,7.9032,30.016V50.933h.7174v-19.29"/>
    <path fill="none" stroke="#92d3f5" stroke-linecap="round" stroke-linejoin="round" stroke-width="2" d="M33.1568,16.2514V26.7266h.6243V14.6887a5.3931,5.3931,0,0,0-5.2736-3.9019,5.4072,5.4072,0,0,0-5.4612,3.815V35.5187h.7174"/>
  </g>
  <g id="line">
    <path fill="none" stroke="#000" stroke-linecap="round" stroke-linejoin="round" stroke-width="2" d="M67.015,66.7126H4.985V53.32A75.6246,75.6246,0,0,0,36,60.0162,75.5043,75.5043,0,0,0,67.015,53.32Z"/>
    <path fill="none" stroke="#000" stroke-linecap="round" stroke-linejoin="round" stroke-width="2" d="M16,38.867a58.01,58.01,0,0,0,20.41,3.3666A57.9971,57.9971,0,0,0,56,38.4844"/>
    <path fill="none" stroke="#000" stroke-linecap="round" stroke-linejoin="round" stroke-width="2" d="M28.57,31.4745a21.1635,21.1635,0,0,0,14.6165-.14"/>
    <path fill="none" stroke="#000" stroke-linecap="round" stroke-linejoin="round" stroke-width="2" d="M16,38.867A22.4557,22.4557,0,0,1,31.0248,59.2746"/>
    <path fill="none" stroke="#000" stroke-linecap="round" stroke-linejoin="round" stroke-width="2" d="M56,38.4844A22.4557,22.4557,0,0,0,40.9752,58.892"/>
    <path fill="none" stroke="#000" stroke-linecap="round" stroke-linejoin="round" stroke-width="2" d="M28.57,31.4983a13.0814,13.0814,0,0,1,2.6427,3.3827,13.33,13.33,0,0,1,1.5856,6.5539"/>
    <path fill="none" stroke="#000" stroke-linecap="round" stroke-linejoin="round" stroke-width="2" d="M43.09,31.4983a13.0836,13.0836,0,0,0-2.6427,3.3827,13.3325,13.3325,0,0,0-1.5856,6.5539"/>
    <path fill="none" stroke="#000" stroke-linecap="round" stroke-linejoin="round" stroke-width="2" d="M54.2316,35.8191v-3.672a4.0884,4.0884,0,0,1,8.1767,0V50.91"/>
    <path fill="none" stroke="#000" stroke-linecap="round" stroke-linejoin="round" stroke-width="2" d="M39.1816,26.7266V16.756a4.0884,4.0884,0,0,1,8.1767,0V35.5187"/>
    <path fill="none" stroke="#000" stroke-linecap="round" stroke-linejoin="round" stroke-width="2" d="M17.4527,35.8191v-3.672a4.0883,4.0883,0,1,0-8.1766,0V50.91"/>
    <path fill="none" stroke="#000" stroke-linecap="round" stroke-linejoin="round" stroke-width="2" d="M32.5027,26.7266V16.756a4.0883,4.0883,0,1,0-8.1766,0V35.5187"/>
  </g>
</svg>
